X: 1088
T: The House in the Glen
R:double jig
B:O'Neill's 1088
Z:Transcribed by henrik.norbeck@mailbox.swipnet.se
M:6/8
L:1/8
K:D
A|FDA, DFB|AFD {F}EDB,|A,DF Adf|{a}fgf eag|
{g}fed AFD|{F}EDB, DFA|dcd eag|fdd d2:|
(f/g/)|(af)a (ge)g|fed ecA|{e}dcd ede|fdf efg|
afa geg|{g}fed ecA|{e}dcd AFD|{F}EDD D2:|


